symbols/web/superscript/materialsymbolsoutlined/superscript_40px.svg

<svg xmlns="http://www.w3.org/2000/svg" height="40" width="40"><path d="M31.958 15v-3.458q0-.625.375-1.021.375-.396 1-.396h3.625V8.042h-5V6.667h5q.625 0 1 .375t.375 1v2.083q0 .625-.375 1.021-.375.396-1 .396h-3.625v2.083h5V15ZM9.792 33.333 17.5 21.208 10.333 10h3.875l5.459 8.708h.041L25.167 10h3.875l-7.167 11.208 7.708 12.125H25.75l-6.042-9.5h-.041l-6.042 9.5Z"/></svg>

<svg xmlns="http://www.w3.org/2000/svg" height="40" width="40"><path d="M31.958 15V11.542Q31.958 10.917 32.333 10.521Q32.708 10.125 33.333 10.125H36.958V8.042H31.958V6.667H36.958Q37.583 6.667 37.958 7.042Q38.333 7.417 38.333 8.042V10.125Q38.333 10.75 37.958 11.146Q37.583 11.542 36.958 11.542H33.333V13.625H38.333V15ZM9.792 33.333 17.5 21.208 10.333 10H14.208L19.667 18.708H19.708L25.167 10H29.042L21.875 21.208L29.583 33.333H25.75L19.708 23.833H19.667L13.625 33.333Z"/></svg>
